!!!SOCIAL_FUNCTION:	songs with treatment of the sick
!!!PDT:	1943
!!!OTL: No_1_Introductory_Song_With_Treatment_of_the_Sick.krn
!!!REG: British Columbia
**kern	**kern
*staff2	*staff1
=1-	=1-
*clefF4	*clefF4
*k[b-e-]	*k[b-e-]
*M2/4	*M2/4
16GG/LL	4r
16GG/	.
16GG/	.
16GG/JJ	.
16GG/LL	8.r
16GG/	.
16GG/	.
16GG/JJ	16A\
=2	=2
16GG/LL	8.B-\L
16GG/	.
16GG/	.
16GG/JJ	16A\Jk
4r	8B-\
.	16r
.	16G\
=3	=3
2r	8.F\L
.	16G\Jk
.	8F\
.	16r
.	32G\LLL
.	32A\JJJ
=4	=4
2r	8B-\L
.	16F\L
.	16G\JJ
.	8B-\L
.	16.G\L
.	32G\JJk
=5	=5
2r	8.F\L
.	16G\Jk
.	8F\
.	16r
.	16F\
=6	=6
2r	4F\
.	16.G\LL
.	32G\K
.	16.G\
.	32G\JJk
=7	=7
2r	4F\
.	8D\
.	16r
.	16G\
=8	=8
2r	16F\LL
.	16G\J
.	8F\J
.	16F\
.	16r
.	16.G\LL
.	32G\JJk
=9	=9
2r	4F\
.	8D\
.	16r
.	16G\
=10	=10
2r	8F\L
.	16F\L
.	16G\JJ
.	16F\LL
.	16D\
.	16.F\
.	32F\JJk
=11	=11
2r	8F\L
.	16G\L
.	16F\JJ
.	8D\
.	16r
.	16G\
=12	=12
2r	8F\L
.	8F\J
.	8F\L
.	16.G\L
.	32G\JJk
=13	=13
2r	8D\L
.	8F\J
.	8D\
.	16r
.	16G\
=14	=14
2r	8.F\L
.	16G\Jk
.	16F\LL
.	16D\
.	16.F\
.	32F\JJk
=15	=15
2r	8D\L
.	8F\J
.	8D\
.	16r
.	16G\
=16	=16
2r	16F\LL
.	16G\J
.	8F\J
.	16F\
.	16r
.	16.G\LL
.	32F\JJk
=17	=17
2r	8D\L
.	8F\J
.	8D\
.	16r
.	16A\
=18	=18
2r	8.G\L
.	16A\Jk
.	8B-\L
.	16.G\L
.	32G\JJk
=19	=19
2r	4F\
.	8D\
.	8r
=20||	=20||
*M3/8	*M3/8
4.r	16G\LL
.	16F\
.	16F\
.	16D\
.	16BB-\
.	16D\JJ
=21||	=21||
*M2/4	*M2/4
2r	4D\
.	8BB-/
.	8r
==	==
*-	*-
